static/assets/img/icons/theme/devices/airpods.svg

<svg height="24" viewBox="0 0 24 24" width="24" xmlns="http://www.w3.org/2000/svg"><g fill="none" fill-rule="evenodd"><path d="m0 0h24v24h-24z" opacity="0"/><g fill="#000"><path d="m17 12.9170416v7.5829584c0 .8284271-.6715729 1.5-1.5 1.5s-1.5-.6715729-1.5-1.5v-9.027787c.8261591.7394324 1.8584259 1.2533087 3 1.4448286z" opacity=".3"/><path d="m10 11.472213v9.027787c0 .8284271-.67157288 1.5-1.5 1.5s-1.5-.6715729-1.5-1.5v-7.5829584c1.14157414-.1915199 2.17384092-.7053962 3-1.4448286z" opacity=".3"/><path d="m18 12c-2.7614237 0-5-2.23857625-5-5s2.2385763-5 5-5 5 2.23857625 5 5-2.2385763 5-5 5zm-3.25-5.5c-.4142136 0-.75.33578644-.75.75s.3357864.75.75.75h.5c.4142136 0 .75-.33578644.75-.75s-.3357864-.75-.75-.75zm6.25-1.5c-.5522847 0-1 .44771525-1 1v2c0 .55228475.4477153 1 1 1s1-.44771525 1-1v-2c0-.55228475-.4477153-1-1-1z"/><path d="m6 12c-2.76142375 0-5-2.23857625-5-5s2.23857625-5 5-5 5 2.23857625 5 5-2.23857625 5-5 5zm2.75-5.5c-.41421356 0-.75.33578644-.75.75s.33578644.75.75.75h.5c.41421356 0 .75-.33578644.75-.75s-.33578644-.75-.75-.75zm-5.75-1.5c-.55228475 0-1 .44771525-1 1v2c0 .55228475.44771525 1 1 1s1-.44771525 1-1v-2c0-.55228475-.44771525-1-1-1z"/></g></g></svg>

<svg width="24px" height="24px" viewBox="0 0 24 24" version="1.1" xmlns="http://www.w3.org/2000/svg" xmlns:xlink="http://www.w3.org/1999/xlink">
    <title>Icon For Airpods</title>
    <g stroke="none" stroke-width="1" fill="none" fill-rule="evenodd">
        <rect opacity="0" x="0" y="0" width="24" height="24"></rect>
        <path d="M17,12.9170416 L17,20.5 C17,21.3284271 16.3284271,22 15.5,22 C14.6715729,22 14,21.3284271 14,20.5 L14,11.472213 C14.8261591,12.2116454 15.8584259,12.7255217 17,12.9170416 Z" fill="#000000" opacity="0.3"></path>
        <path d="M10,11.472213 L10,20.5 C10,21.3284271 9.32842712,22 8.5,22 C7.67157288,22 7,21.3284271 7,20.5 L7,12.9170416 C8.14157414,12.7255217 9.17384092,12.2116454 10,11.472213 Z" fill="#000000" opacity="0.3"></path>
        <path d="M18,12 C15.2385763,12 13,9.76142375 13,7 C13,4.23857625 15.2385763,2 18,2 C20.7614237,2 23,4.23857625 23,7 C23,9.76142375 20.7614237,12 18,12 Z M14.75,6.5 C14.3357864,6.5 14,6.83578644 14,7.25 C14,7.66421356 14.3357864,8 14.75,8 L15.25,8 C15.6642136,8 16,7.66421356 16,7.25 C16,6.83578644 15.6642136,6.5 15.25,6.5 L14.75,6.5 Z M21,5 C20.4477153,5 20,5.44771525 20,6 L20,8 C20,8.55228475 20.4477153,9 21,9 C21.5522847,9 22,8.55228475 22,8 L22,6 C22,5.44771525 21.5522847,5 21,5 Z" fill="#000000"></path>
        <path d="M6,12 C3.23857625,12 1,9.76142375 1,7 C1,4.23857625 3.23857625,2 6,2 C8.76142375,2 11,4.23857625 11,7 C11,9.76142375 8.76142375,12 6,12 Z M8.75,6.5 C8.33578644,6.5 8,6.83578644 8,7.25 C8,7.66421356 8.33578644,8 8.75,8 L9.25,8 C9.66421356,8 10,7.66421356 10,7.25 C10,6.83578644 9.66421356,6.5 9.25,6.5 L8.75,6.5 Z M3,5 C2.44771525,5 2,5.44771525 2,6 L2,8 C2,8.55228475 2.44771525,9 3,9 C3.55228475,9 4,8.55228475 4,8 L4,6 C4,5.44771525 3.55228475,5 3,5 Z" fill="#000000"></path>
    </g>
</svg>
